!!!!SEGMENT: pl-kk--kk-i-35--001-002_anonim--missa-et-in-terra.krn
!!!cenid: 16xx:1335
!!!COM: Anonim
!!!COM-rismID: pe30004985
!!!CDT:
!!!CNT:
!!!OPR: Missa
!!!OTL: Et in terra
!!!OMV: 002
!!!PDT:
!!!AGN: Sacred; Mass
!!!SMS-siglum: PL-Kk
!!!SMS-shelfmark: Kk.I.35
!!!SMS-shelfwork: 001-002 M
!!!SMS-variant:
!!!SMS-altvar:
!!!NIFC-rismSourceID: 1001154769
!!!NIFC-rismChildID: 1001154769
!!!NIFC-islandoraID: pl-kk:21971
!!!URL-pdf-islandora: https://repozytorium.nifc.pl/islandora/object/pl-kk%3A21971/datastream/PDF/view
!!!URL-scan: https://polish.musicsources.pl/pl/lokalizacje/galeria/rekopisy/7130/1 @EN{Scan on Polish Music Sources Website} @PL{Skany w portalu Dziedzictwo Muzyki Polskiej w otwartym dostępie}
!!!IIIF:
!!!ONB-nifc: UWAGA: części Mszy: 1. Kyrie, 2. Et in terra, 3. Patrem, 4. Sanctus, 5. Agnus Dei
!!!AIN: 1 alto 1 empty 1 organ 1 tenor 1 vox
!!!key:
**kern	**fba	**kern	**text	**kern	**text	**kern	**text	**kern	**text
*part5	*part5	*part4	*part4	*part3	*part3	*part2	*part2	*part1	*part1
*staff5	*staff5	*staff4	*staff4	*staff3	*staff3	*staff2	*staff2	*staff1	*staff1
*Iorgan	*	*Iempty	*	*Itenor	*	*Ialto	*	*Ivox	*
*I"[Organo]	*	*I"[Basso]	*	*I"[Tenore]	*	*I"[Alto]	*	*I"[Canto]	*
*I'org	*	*I'B	*	*I'T	*	*I'A	*	*I'S	*
*clefC4	*	*clefF4	*	*clefC4	*	*clefC3	*	*clefC1	*
*k[]	*	*k[]	*	*k[]	*	*k[]	*	*k[]	*
*C:	*	*C:	*	*C:	*	*C:	*	*C:	*
*M2/1	*	*M2/1	*	*M2/1	*	*M2/1	*	*M2/1	*
*met(C|)	*	*met(C|)	*	*met(C|)	*	*met(C|)	*	*met(C|)	*
*all\right	*	*all\right	*	*all\right	*	*all\right	*	*all\right	*
=1-	=1-	=1-	=1-	=1-	=1-	=1-	=1-	=1-	=1-
!LO:TX:b:t=Et In terra	!	!	!	!	!	!	!	!	!
1c	.	00r	.	1r	.	1r	.	1.g	Et
!LO:TX:t=P:problem=kreska pseudotaktowa	!	!	!	!	!	!	!	!	!
1c	.	.	.	1.c	Et	1.e	Et	.	.
*	*	*	*	*	*	*	*	*2\right	*
.	.	.	.	.	.	.	.	2g\	in
=2-	=2-	=2-	=2-	=2-	=2-	=2-	=2-	=2-	=2-
1c	6	.	.	.	.	.	.	2.a\	ter-
*	*	*	*	*2\right	*	*2\right	*	*	*
.	.	.	.	2c\	In	2e\	In	.	.
.	5	.	.	.	.	.	.	4g\	-ra
*2\right	*	*	*	*	*	*	*	*	*
2.d\	.	.	.	2.d\	ter-	2.f\	te[r]-	2f\	pax
.	.	.	.	.	.	.	.	2a\	ho-
!LO:TX:t=P:problem=kreska pseudotaktowa	!	!	!	!	!	!	!	!	!
4c\	.	.	.	4c\	-ra	4e\	-ra	.	.
=3-	=3-	=3-	=3-	=3-	=3-	=3-	=3-	=3-	=3-
*	*	*	*	*	*	*	*	*	*
2B\	6	1r	.	2B\	pax	4d\	pax	2g/	-mi-
.	.	.	.	.	.	4e\	ho-	.	.
2d\	.	.	.	2d\	ho-	1d	-mi-	2f/	-ni-
1A	4	2r	.	2.A\	-mi-	.	.	1e	-b(us)
!LO:TX:b:t=P:problem=# below w bc	!	!	!	!	!	!	!	!	!
.	#3	1A\	bo-	.	.	2c#y/	-ni-	.	.
.	.	.	.	4A\	-ni-	.	.	.	.
*clefF4	*	*	*	*	*	*	*	*	*
=4-	=4-	=4-	=4-	=4-	=4-	=4-	=4-	=4-	=4-
1D	#	.	.	2D/	-b(us)	2d\	-b(us)	00r	.
*	*	*2\right	*	*	*	*	*	*	*
.	.	2F#X\	-nae	1d	bo-	2f#X\	bo-	.	.
2.G\	.	2.G\	vo-	.	.	2d,<\	-nae	.	.
.	.	.	.	1B\	-nae	2.g\	vo-	.	.
!LO:TX:t=P:problem=kreska pseudotaktowa	!	!	!	!	!	!	!	!	!
4F\	.	4F#\	.	.	.	.	.	.	.
=5-	=5-	=5-	=5-	=5-	=5-	=5-	=5-	=5-	=5-
4E\	.	4E\	.	.	.	.	.	.	.
4D\	.	4D\	.	.	.	4fny\	.	.	.
2C\	.	2C\	-lun-	1c	Vo-	4g\	-lun-	.	.
.	.	.	.	.	.	4e\	.	.	.
!LO:TX:b:t=P:problem=# below w bc	!	!	!	!	!	!	!	!	!
0D	#3	0D	-ta-	.	.	2f#X\	-ta-	.	.
.	4	.	.	2B\	-lu(n)-	1g\	.	.	.
=6-	=6-	=6-	=6-	=6-	=6-	=6-	=6-	=6-	=6-
.	.	.	.	1A	-ta-	.	.	1r	.
*	*	*	*	*	*	*2\left	*	*	*
.	#3	.	.	.	.	2f#y\	.	.	.
*	*	*	*	*custos:G	*	*	*	*	*
!LO:LB:g=original	!	!	!	!	!	!	!	!	!
2G\	.	2GG/	-tis	1B	-tis	1g	-tis	2r	.
2E\	.	2E\	lau-	.	.	.	.	2g\	lau-
!	!	!	!	!LO:LB:g=original	!	!LO:LB:g=original	!	!	!
=7-	=7-	=7-	=7-	=7-	=7-	=7-	=7-	=7-	=7-
2.F\	.	2.Fny\	-da-	0r	.	0r	.	2.a\	-da-
4G\	.	4G\	.	.	.	.	.	4b\	.
2A\	.	2A\	.	.	.	.	.	4cc\	.
.	.	.	.	.	.	.	.	4dd\	.
!LO:TX:t=P:problem=kreska pseudotaktowa	!	!	!	!	!	!	!	!	!
2E\	6	2E\	.	.	.	.	.	1cc\	.
=8-	=8-	=8-	=8-	=8-	=8-	=8-	=8-	=8-	=8-
*	*	*	*	*	*	*2\right	*	*	*
1G	4	2.G\	.	2.G\	be-	2.d\	be-	.	.
.	3	.	.	.	.	.	.	2b\	-m(us)
.	.	4G\	-m(us)	4G\	-ne-	4d\	-ne-	.	.
*	*	*	*	*	*	*	*	*custos:a	*
2.C/	.	1C	te	2.c\	-di-	2.e\	-di-	1cc	te
!LO:TX:t=P:problem=kreska pseudotaktowa	!	!	!	!	!	!	!	!	!
4D/	.	.	.	4d\	.	4fny\	.	.	.
!	!	!LO:PB:g=original	!	!	!	!	!	!LO:LB:g=original	!
=9-	=9-	=9-	=9-	=9-	=9-	=9-	=9-	=9-	=9-
2E\	.	1r	.	2e\	.	4g\	.	1r	.
.	.	.	.	.	.	4a\	-ci-	.	.
2BB/	6	.	.	2B\	ci-	1g	-m(us)	.	.
!LO:TX:t=P:problem=kreska pseudotaktowa	!	!	!	!	!	!	!	!	!
1D	4	2r	.	1d	-m(us)	.	.	2.a\	a-
!LO:TX:b:t=P:problem=# below w bc	!	!	!	!	!	!LO:TX:b:t=P:problem=♯ below	!	!	!
.	#3	4D\	a-	.	.	2f#X\	.	.	.
.	.	4D\	-do-	.	.	.	.	4a\	-do-
=10-	=10-	=10-	=10-	=10-	=10-	=10-	=10-	=10-	=10-
2.G\	.	2.G\	-ra-	1G	te	1g	te	2.b\	-ra-
4A\	.	4A\	.	.	.	.	.	4cc\	.
2B\	.	2B\	.	0r	.	2r	.	4dd\	.
.	.	.	.	.	.	.	.	4ee\	.
!LO:TX:t=P:problem=kreska pseudotaktowa	!	!	!	!	!	!	!	!	!
2F#X\	6	2F#X\	.	.	.	2.a\	glo-	1dd\	.
=11-	=11-	=11-	=11-	=11-	=11-	=11-	=11-	=11-	=11-
1A	4	2.A\	.	.	.	.	.	.	.
.	.	.	.	.	.	4a\	-ri-	.	.
!LO:TX:b:t=P:problem=# below w bc	!	!	!	!	!	!	!	!LO:TX:b:t=P:problem=♯ below	!
.	#3	.	.	.	.	2e\	-fi-	2cc#X\	-m(us)
.	.	4A\	-m(us)	.	.	.	.	.	.
!LO:TX:t=P:problem=kreska pseudotaktowa	!	!	!	!	!	!	!	!	!
1D	#	1D	te	2r	.	2.f#X\	-ca-	0dd	te
.	.	.	.	2.d\	glo-	.	.	.	.
.	.	.	.	.	.	4g\	.	.	.
=12-	=12-	=12-	=12-	=12-	=12-	=12-	=12-	=12-	=12-
1.D	-	2r	.	.	-ri-	2.a\	.	.	.
.	.	.	.	4d\	-fi-	.	.	.	.
.	.	2.D/	glo-	2A\	-ca-	.	.	.	.
.	.	.	.	.	.	4g\	.	.	.
.	.	.	.	4A\	.	2fny\	.	1r	.
.	.	4D/	-ri-	4B\	.	.	.	.	.
2AA/	.	2AA/	-fi-	4c\	.	2e\	.	.	.
.	.	.	.	4A\	.	.	.	.	.
!LO:LB:g=original	!	!	!	!	!	!	!	!	!
=13-	=13-	=13-	=13-	=13-	=13-	=13-	=13-	=13-	=13-
2.BB/	.	2.BB/	-ca-	2d\	.	2.d\	.	2r	.
.	.	.	.	2.D/	.	.	.	2.dd\	glo-
4C/	.	4C/	.	.	.	4e\	.	.	.
!LO:TX:t=P:problem=kreska pseudotaktowa	!	!	!	!	!	!	!	!	!
1D	.	1D	.	.	.	1f	.	.	.
.	.	.	.	4E/	.	.	.	4dd\	-ri-
.	.	.	.	4F/	.	.	.	2a\	-fi-
.	.	.	.	4G/	.	.	.	.	.
=14-	=14-	=14-	=14-	=14-	=14-	=14-	=14-	=14-	=14-
*	*	*	*	*lig	*	*	*	*	*
*	*	*	*	*	*	*custos:a	*	*	*
1AA	.	1AA	-m(us)	1A	.	2e\	.	1ccny	-ca-
!	!	!	!	!	!	!LO:LB:g=original	!	!	!
.	.	.	.	.	.	1a	.	.	.
!LO:TX:t=P:problem=kreska pseudotaktowa	!	!	!	!	!	!	!	!	!
*	*	*	*	*col	*	*	*	*	*
1E	4	1r	.	2.E/	.	.	.	1b	-m(us)
!LO:TX:b:t=P:problem=# below w bc	!	!	!	!	!	!LO:TX:b:t=P:problem=♯ below	!	!	!
.	#3	.	.	.	.	2g#X\	-m(us)	.	.
*	*	*	*	*Xlig	*	*	*	*	*
.	.	.	.	4E/	-m(us)	.	.	.	.
*	*	*	*	*Xcol	*	*	*	*	*
!	!	!	!	!LO:LB:g=original	!	!	!	!	!
=15-	=15-	=15-	=15-	=15-	=15-	=15-	=15-	=15-	=15-
2AA/	.	2r	.	2A\	te	1a	te	1r	.
1A	.	2.A\	glo-	2.c\	glo-	.	.	.	.
.	.	.	.	.	.	2r	.	2r	.
.	.	4A\	-ri-	4c\	-ri-	.	.	.	.
*	*	*custos:G	*	*	*	*	*	*	*
!LO:TX:t=P:problem=kreska pseudotaktowa	!	!	!	!	!	!	!	!	!
2E\	.	2E\	-fi-	2G/	-fi-	2.gny\	glo-	2.ee\	glo-
!	!	!LO:LB:g=original	!	!	!	!	!	!	!
=16-	=16-	=16-	=16-	=16-	=16-	=16-	=16-	=16-	=16-
2.G\	.	2.G\	-ca-	2.B\	-ca-	.	.	.	.
.	.	.	.	.	.	4g\	-ri-	4ee\	-ri-
.	.	.	.	.	.	2d\	-fi-	1b	-fi-
4Fny\	.	4Fny\	.	4A\	.	.	.	.	.
2E\	.	2E\	.	1.G	.	2g\	-ca-	.	.
4D\	.	4D\	.	.	.	4f\	.	1cc\	-ca-
!LO:TX:t=P:problem=kreska pseudotaktowa	!	!	!	!	!LO:TX:t=P:problem=kreska pseudotaktowa	!	!	!	!
4C\	.	4C\	.	.	.	4e\	.	.	.
=17-	=17-	=17-	=17-	=17-	=17-	=17-	=17-	=17-	=17-
1GG	4	2.G\	.	.	.	2.d\	.	.	.
.	3	.	.	2G/	-m(us)	.	.	2b\	-m(us)
.	.	4G\	-m(us)	.	.	4d\	-m(us)	.	.
*	*	*	*	*	*	*	*	*custos:g	*
!LO:TX:t=P:problem=kreska pseudotaktowa	!	!	!	!	!	!	!	!	!
1C	.	0C	te	0G	te	1e	te	2cc\	te
!	!	!	!	!	!	!	!	!LO:PB:g=original	!
.	.	.	.	.	.	.	.	1g\	Gra-
=18-	=18-	=18-	=18-	=18-	=18-	=18-	=18-	=18-	=18-
1C	.	.	.	.	.	1r	.	.	.
.	.	.	.	.	.	.	.	2a\	-ti-
!LO:TX:t=P:problem=kreska pseudotaktowa	!	!	!	!	!	!	!	!	!
1GG	.	00r	.	1r	.	1.G	Gra-	1b	-as
=19-	=19-	=19-	=19-	=19-	=19-	=19-	=19-	=19-	=19-
!LO:TX:b:t=Gratias	!	!	!	!	!	!	!	!	!
1C	.	.	.	1C	Gra-	.	.	1cc	a-
.	.	.	.	.	.	1A	-ti-	.	.
!LO:TX:t=P:problem=kreska pseudotaktowa	!	!	!	!	!	!	!	!	!
1D	.	.	.	1D	-ti-	.	.	1a	-gi-
.	.	.	.	.	.	1B/	-as	.	.
=20-	=20-	=20-	=20-	=20-	=20-	=20-	=20-	=20-	=20-
1E	.	.	.	1E	-as	.	.	1g	-m(us)
.	.	.	.	.	.	1c	a-	.	.
*custos:D	*	*	*	*	*	*	*	*	*
1F	.	00r	.	1F	a-	.	.	4a\	ti-
.	.	.	.	.	.	.	.	4b\	.
.	.	.	.	.	.	2A/	-gi-	1cc\	.
!LO:LB:g=original	!	!	!	!	!	!	!	!	!
=21-	=21-	=21-	=21-	=21-	=21-	=21-	=21-	=21-	=21-
1D	.	.	.	1D	-gi-	1f	-m(us)	.	.
.	.	.	.	.	.	.	.	2b\	.
!LO:TX:t=P:problem=kreska pseudotaktowa	!	!	!	!	!	!	!	!	!
1C	.	.	.	1C	-m(us)	2.e\	ti-	2.cc\	.
*	*	*	*	*	*	*custos:c	*	*	*
.	.	.	.	.	.	4d\	.	4b\	.
!	!	!	!	!	!	!LO:LB:g=original	!	!	!
=22-	=22-	=22-	=22-	=22-	=22-	=22-	=22-	=22-	=22-
*	*	*	*	*lig	*	*	*	*	*
1F	.	.	.	1F	ti-	4c/	.	4a\	.
.	.	.	.	.	.	4B/	.	4g\	.
.	.	.	.	.	.	1c	.	4f/	.
.	.	.	.	.	.	.	.	4e/	.
!LO:TX:t=P:problem=kreska pseudotaktowa	!	!	!	!	!	!	!	!	!
1G	.	00r	.	1G	.	.	.	1d	-bi
.	.	.	.	.	.	4B/	.	.	.
.	.	.	.	.	.	4A/	.	.	.
*	*	*	*	*Xlig	*	*	*	*	*
=23-	=23-	=23-	=23-	=23-	=23-	=23-	=23-	=23-	=23-
*	*	*	*	*custos:G	*	*	*	*	*
!LO:TX:t=P:problem=kreska pseudotaktowa	!	!	!	!	!	!	!	!	!
0G	3	.	.	0G	-bi	1B	.	2r	.
.	.	.	.	.	.	.	.	1b	pro-
.	.	.	.	.	.	1G	-bi	.	.
.	.	.	.	.	.	.	.	2cc\	-pter
!	!	!	!	!LO:LB:g=original	!	!	!	!	!
=24-	=24-	=24-	=24-	=24-	=24-	=24-	=24-	=24-	=24-
1G	5	.	.	1G	pro-	2r	.	2dd\	ma-
.	6	.	.	.	.	1e	pro-	2b\	-gna(m)
*	*	*	*	*lig	*	*	*	*	*
!LO:TX:t=P:problem=kreska pseudotaktowa	!	!	!	!	!	!	!	!	!
1A	5	00r	.	1A	-pter	.	.	2r	.
!LO:TX:b:t=P:problem=# below w bc	!	!	!	!	!	!	!	!	!
.	#6	.	.	.	.	1f#X\	-pter	2cc\	pro-
=25-	=25-	=25-	=25-	=25-	=25-	=25-	=25-	=25-	=25-
*	*	*	*	*	*	*	*	*custos:ee	*
1B	5	.	.	1B	.	.	.	1dd	-pter
.	6	.	.	.	.	1g	ma-	.	.
*	*	*	*	*Xlig	*	*	*	*	*
!LO:TX:t=P:problem=kreska pseudotaktowa	!	!	!	!	!	!	!LO:LB:g=original	!	!
1c	.	.	.	1c	ma-	.	.	1ee	ma-
.	.	.	.	.	.	2e\	gna(m)	.	.
=26-	=26-	=26-	=26-	=26-	=26-	=26-	=26-	=26-	=26-
*	*	*	*	*lig	*	*	*	*	*
1B-X	.	.	.	1B-X	-gna(m)	2.fny\	gl(o-	1dd	-gna(m)
.	.	.	.	.	.	4d\	-ri)-	.	.
!LO:TX:t=P:problem=kreska pseudotaktowa	!	!	!	!	!	!	!	!	!
1A	.	00r	.	1A	.	2e\	-a(m)	2.cc\	glo-
.	.	.	.	.	.	1f\	tu-	.	.
.	.	.	.	.	.	.	.	4a\	-ri-
*	*	*	*	*Xlig	*	*	*	*	*
=27-	=27-	=27-	=27-	=27-	=27-	=27-	=27-	=27-	=27-
*	*below	*	*	*lig	*	*	*	*	*
1G	7	.	.	1G	.	.	.	1b-X	-am
!LO:TX:a:t=P:problem=♭ above w bc	!	!	!	!	!	!	!	!	!
.	-6	.	.	.	.	2e-y\	.	.	.
!LO:TX:t=P:problem=kreska pseudotaktowa	!	!	!	!	!	!	!	!	!
*	*	*	*	*	*	*lig	*	*	*
1F	.	.	.	1A	.	1f	-am	4a\	.
.	.	.	.	.	.	.	.	4b-\	.
.	.	.	.	.	.	.	.	1cc\	.
*	*	*	*	*Xlig	*	*	*	*	*
=28-	=28-	=28-	=28-	=28-	=28-	=28-	=28-	=28-	=28-
*	*above	*	*	*	*	*	*	*	*
!LO:TX:t=P:problem=kreska pseudotaktowa	!	!	!	!	!	!	!	!	!
0G	4	.	.	0G	.	1d	.	.	.
.	3	.	.	.	.	.	.	4bny\	.
.	.	.	.	.	.	.	.	4a\	.
*	*	*	*	*	*	*Xlig	*	*	*
.	.	1r	.	.	.	1r	.	1b	tu-
=29-	=29-	=29-	=29-	=29-	=29-	=29-	=29-	=29-	=29-
1F	.	2r	.	1F	glo-	2r	.	1cc	-am
.	.	2.A\	Do-	.	.	2.c\	Do-	.	.
*custos:D	*	*	*	*	*	*	*	*	*
1E	4	.	.	1E	-ri-	.	.	2r	.
.	.	4A\	-mi-	.	.	4d\	-mi-	.	.
.	3	2G\	-ne	.	.	2eny\	-ne	2.cc\	Do-
!LO:LB:g=original	!	!	!	!	!	!LO:LB:g=original	!	!	!
=30-	=30-	=30-	=30-	=30-	=30-	=30-	=30-	=30-	=30-
*	*	*	*	*lig	*	*	*	*	*
1D	.	2F\	De-	1D	-am	1f	De-	.	.
.	.	.	.	.	.	.	.	4cc\	-mi-
.	.	2D\	-us	.	.	.	.	2b\	-ne
!LO:TX:t=P:problem=kreska pseudotaktowa	!	!	!	!	!	!LO:SIC:v:s=2g\	!	!	!
1E	.	2G\	Rex	1E	.	2f\	-us	1cc	De-
.	.	2E\	cae-	.	.	2g\	Rex	.	.
*	*	*	*	*Xlig	*	*	*	*	*
=31-	=31-	=31-	=31-	=31-	=31-	=31-	=31-	=31-	=31-
*	*	*	*	*lig	*	*	*	*	*
1F	.	4A\	-le-	1F	tu-	1c	Cae-	2a\	-us
.	.	4G\	.	.	.	.	.	.	.
.	.	2.F\	.	.	.	.	.	2.dd\	Rex
!LO:TX:t=P:problem=kreska pseudotaktowa	!	!	!	!	!	!	!	!	!
1D	.	.	.	1D	.	1d	-le-	.	.
.	.	4E\	.	.	.	.	.	4ee\	.
*	*	*custos:G	*	*	*	*	*	*	*
.	.	2D\	.	.	.	.	.	4ff\	.
.	.	.	.	.	.	.	.	4dd\	.
*	*	*	*	*Xlig	*	*	*	*	*
!	!	!LO:LB:g=original	!	!	!	!	!	!	!
=32-	=32-	=32-	=32-	=32-	=32-	=32-	=32-	=32-	=32-
*	*	*	*	*custos:G	*	*	*	*	*
!LO:TX:t=P:problem=kreska pseudotaktowa	!	!	!	!	!	!	!	!	!
0C	.	2G\	.	0C	-am	1G	-ſtis	4ee\	Cae-
.	.	.	.	.	.	.	.	4dd\	.
.	.	2C/	.	.	.	.	.	4cc\	.
.	.	.	.	.	.	.	.	4b\	.
!	!	!	!	!	!	!	!	!LO:LB:g=original	!
.	.	1C	ſtis	.	.	2r	.	2cc\	le-
.	.	.	.	.	.	1c\	De-	2g\	-ſtis
!	!	!	!	!LO:LB:g=original	!	!	!	!	!
=33-	=33-	=33-	=33-	=33-	=33-	=33-	=33-	=33-	=33-
1G	.	00r	.	1G	Do-	.	.	2r	.
.	.	.	.	.	.	2B/	-us	1dd	De-
!LO:TX:t=P:problem=kreska pseudotaktowa	!	!	!	!	!	!	!	!	!
1F	.	.	.	1F	-mi-	1A	pa-	.	.
.	.	.	.	.	.	.	.	2cc\	-us
=34-	=34-	=34-	=34-	=34-	=34-	=34-	=34-	=34-	=34-
*	*	*	*	*lig	*	*	*	*	*
1E	.	.	.	1E	-ne	2G/	-ter	2cc\	pa-
*	*	*	*	*	*	*	*ij	*	*
.	.	.	.	.	.	1g	De-	2b\	-ter
!LO:TX:t=P:problem=kreska pseudotaktowa	!	!	!	!	!	!	!	!	!
1F	.	.	.	1F	.	.	.	2r	.
.	.	.	.	.	.	2f\	-us	1cc\	De-
*	*	*	*	*Xlig	*	*	*	*	*
=35-	=35-	=35-	=35-	=35-	=35-	=35-	=35-	=35-	=35-
1D	.	2r	.	1D	De-	1f	pa-	.	.
.	.	1F	De-	.	.	.	.	2b-X\	-us
!LO:TX:t=P:problem=kreska pseudotaktowa	!	!	!	!	!	!	!	!	!
1C	4	.	.	1C	-us	1c	-ter	2a\	pa-
!LO:TX:a:t=P:problem=♭ above w bc	!	!	!	!	!	!	!	!	!
.	-3	2E-y\	-us	.	.	.	.	2g\	.
*	*	*	*	*	*	*	*Xij	*	*
=36-	=36-	=36-	=36-	=36-	=36-	=36-	=36-	=36-	=36-
1D	.	1D	pa-	1F	Rex	2r	.	4a\	.
.	.	.	.	.	.	.	.	4g\	.
.	.	.	.	.	.	1f	De-	4a\	.
.	.	.	.	.	.	.	.	4bny\	.
!LO:TX:t=P:problem=kreska pseudotaktowa	!	!	!	!	!	!	!	!	!
1C	.	1C	-ter	1G	Cae-	.	.	2.cc\	.
.	.	.	.	.	.	2e\	-us	.	.
.	.	.	.	.	.	.	.	4b-X\	.
=37-	=37-	=37-	=37-	=37-	=37-	=37-	=37-	=37-	=37-
*	*	*	*	*lig	*	*	*	*	*
1F	.	1F	om-	1A	-le-	1f	pa-	2.a\	.
.	.	.	.	.	.	.	.	4g/	.
!LO:TX:t=P:problem=kreska pseudotaktowa	!	!	!	!	!	!	!	!	!
1BB-X	.	1BB-X	-ni-	1B-X	.	1d	-ter	4f/	.
.	.	.	.	.	.	.	.	4d/	.
*	*	*	*	*	*	*	*	*custos:cc	*
.	.	.	.	.	.	.	.	2dd\	-ter
*	*	*	*	*Xlig	*	*	*	*	*
!	!	!	!	!	!	!	!	!LO:LB:g=original	!
=38-	=38-	=38-	=38-	=38-	=38-	=38-	=38-	=38-	=38-
*	*	*lig	*	*	*	*	*	*	*
*	*	*	*	*	*	*custos:d	*	*	*
1C	.	1C	.	1.G	.	1e	Om-	2cc\	Om-
.	.	.	.	.	.	.	.	2b-X\	-ni-
*custos:GG	*	*	*	*	*	*	*	*	*
!	!	!	!	!	!LO:LB:g=original	!	!	!	!
*	*	*col	*	*	*	*	*	*	*
1D	4	2.D\	.	.	.	2.d\	-ni-	2.a\	.
!LO:TX:b:t=P:problem=# below w bc	!	!	!	!LO:TX:b:t=P:problem=♯ below	!	!	!	!	!
.	#3	.	.	2F#X/	.	.	.	.	.
*	*	*Xlig	*	*	*	*	*	*	*
.	.	4D\	-po-	.	.	4d\	-po-	4a\	po-
*	*	*Xcol	*	*	*	*	*	*	*
!LO:LB:g=original	!	!	!	!	!	!	!	!	!
=39-	=39-	=39-	=39-	=39-	=39-	=39-	=39-	=39-	=39-
1GG	.	1GG	-tens	1G	ſtis	2d\	-tens	1bny	-tens
.	.	.	.	.	.	1g	De-	.	.
!LO:TX:t=P:problem=kreska pseudotaktowa	!	!	!	!	!	!	!	!	!
1C	.	00r	.	1C	De-	.	.	2r	.
.	.	.	.	.	.	2e\	-us	1cc\	De-
=40-	=40-	=40-	=40-	=40-	=40-	=40-	=40-	=40-	=40-
1D	.	.	.	1D	-us	2.f\	pa-	.	.
.	.	.	.	.	.	.	.	2b-X\	-us
.	.	.	.	.	.	8e\L	.	.	.
.	.	.	.	.	.	8d\J	.	.	.
!LO:TX:t=P:problem=kreska pseudotaktowa	!	!	!	!	!	!	!	!	!
1F	.	.	.	1Fny	pa-	2c\	.	1a	pa-
.	.	.	.	.	.	2d\	.	.	.
=41-	=41-	=41-	=41-	=41-	=41-	=41-	=41-	=41-	=41-
*	*	*	*	*lig	*	*	*	*	*
1E	.	.	.	1E	-ter	4e\	.	1g	-ter
.	.	.	.	.	.	4f\	.	.	.
.	.	.	.	.	.	4g\	.	.	.
.	.	.	.	.	.	4e\	.	.	.
*	*	*	*	*custos:D	*	*	*	*	*
!LO:TX:t=P:problem=kreska pseudotaktowa	!	!	!	!	!	!	!	!	!
1F	.	1r	.	1F	.	2.a\	.	2r	.
*	*	*	*	*	*	*	*	*	*ij
.	.	.	.	.	.	.	.	1cc\	De-
.	.	.	.	.	.	4g\	.	.	.
*	*	*	*	*Xlig	*	*	*	*	*
!	!	!	!	!LO:LB:g=original	!	!	!	!	!
=42-	=42-	=42-	=42-	=42-	=42-	=42-	=42-	=42-	=42-
*	*	*	*	*lig	*	*	*	*	*
1D	.	2r	.	1D	om-	1f	.	.	.
.	.	1F	De-	.	.	.	.	2bny\	-us
!LO:TX:t=P:problem=kreska pseudotaktowa	!	!	!	!	!	!	!	!	!
1C	.	.	.	1C	.	[<2.g\	.	1cc	pa-
.	.	2E\	-us	.	.	.	.	.	.
*	*	*	*	*Xlig	*	*	*	*	*
=43-	=43-	=43-	=43-	=43-	=43-	=43-	=43-	=43-	=43-
*	*	*	*	*lig	*	*	*	*	*
.	.	.	.	.	.	4g\]	.	.	.
*	*	*custos:C	*	*	*	*	*	*	*
1BBny	4 2	1D	pa-	1BB	-ni-	2f\	.	2f/	-ter
*	*	*	*	*	*	*	*	*	*Xij
.	.	.	.	.	.	4e\	.	1ff	De-
.	.	.	.	.	.	4d\	.	.	.
!LO:TX:t=P:problem=kreska pseudotaktowa	!	!LO:LB:g=original	!	!	!	!	!	!	!
1C	.	2.C\	-ter	1C	.	2.g\	.	.	.
.	.	.	.	.	.	.	.	2ee\	-us
*	*	*	*	*	*	*custos:e	*	*	*
.	.	4D\	.	.	.	4f\	.	.	.
*	*	*	*	*Xlig	*	*	*	*	*
!	!	!	!	!	!	!LO:LB:g=original	!	!	!
=44-	=44-	=44-	=44-	=44-	=44-	=44-	=44-	=44-	=44-
!LO:TX:t=P:problem=kreska pseudotaktowa	!	!	!	!	!	!	!	!	!
0C	3	2E\	.	0C	-po-	2e\	.	4ee\	pa-
.	.	.	.	.	.	.	.	4dd\	.
.	4	1F	om-	.	.	2a\	.	4cc\	.
*	*	*	*	*	*	*	*	*custos:a	*
.	.	.	.	.	.	.	.	4b\	.
!	!	!	!	!	!	!	!	!LO:LB:g=original	!
.	.	.	.	.	.	1f	-ter	2a\	.
.	3	4E\	.	.	.	.	.	4g\	.
.	.	4D\	.	.	.	.	.	4f\	.
=45-	=45-	=45-	=45-	=45-	=45-	=45-	=45-	=45-	=45-
1C	.	2E\	.	0C	-tens	2.c\	Om-	2g\	.
.	.	2A\	.	.	.	.	.	2f\	-ter
.	.	.	.	.	.	4d\	.	.	.
!LO:TX:t=P:problem=kreska pseudotaktowa	!	!	!	!	!	!	!	!	!
1C	.	2.G\	.	.	.	4e\	.	2.e/	om-
.	.	.	.	.	.	4f\	.	.	.
.	.	.	.	.	.	1g\	ni-	.	.
.	.	4F\	.	.	.	.	.	4f/	.
=46-	=46-	=46-	=46-	=46-	=46-	=46-	=46-	=46-	=46-
2E\	.	2E\	.	1G	Do-	.	.	2g\	.
4D\	.	4D\	.	.	.	4f\	.	2.a\	ni-
4C\	.	4C\	.	.	.	4e\	.	.	.
!LO:TX:t=P:problem=kreska pseudotaktowa	!	!	!	!	!	!	!	!	!
1D	.	2.D\	-ni-	1F	-mi-	2f\	.	.	.
.	.	.	.	.	.	.	.	4g\	.
.	.	.	.	.	.	2d\	-po-	4a\	.
.	.	4D\	-po-	.	.	.	.	4b\	.
=47-	=47-	=47-	=47-	=47-	=47-	=47-	=47-	=47-	=47-
*	*	*	*	*lig	*	*	*	*	*
1AA	-	1AA	-tens	1E	-ne	1c	-tens	2.cc\	.
.	.	.	.	.	.	.	.	4cc\	-po-
*custos:D	*	*	*	*	*	*	*	*	*
1D	-	2r	.	1F	.	2r	.	1f	-tens
.	.	1D\	Do-	.	.	1f\	Do-	.	.
*	*	*	*	*Xlig	*	*	*	*	*
!LO:LB:g=original	!	!	!	!	!	!	!	!	!
=48-	=48-	=48-	=48-	=48-	=48-	=48-	=48-	=48-	=48-
2D\	.	.	.	1D	fi-	.	.	2r	.
2BB-X/	.	2BB-X/	-mi-	.	.	2d\	-mi-	1b-X	Do-
!LO:TX:t=P:problem=kreska pseudotaktowa	!	!	!	!	!	!	!	!	!
1FF	.	1FF	-ne	1C	-li	2f\	-ne	.	.
.	.	.	.	.	.	1a\	fi-	2a\	-mi-
=49-	=49-	=49-	=49-	=49-	=49-	=49-	=49-	=49-	=49-
2F\	.	2F\	fi-	1F	V-	.	.	2a\	-ne
*	*	*custos:E	*	*	*	*	*	*	*
!	!	!	!	!	!	!	!	!LO:N:acc=#	!
2D\	.	2D\	-li	.	.	2f\	-li	2bn\	fi-
!LO:TX:t=P:problem=kreska pseudotaktowa	!	!LO:LB:g=original	!	!	!	!	!	!	!
1E	.	4E\	u-	1G	-ni-	0c	V-	2cc\	-li
.	.	4F\	.	.	.	.	.	.	.
*	*	*	*	*	*	*	*	*custos:a	*
.	.	4G\	.	.	.	.	.	2b-X\	V-
.	.	4E\	.	.	.	.	.	.	.
!	!	!	!	!	!	!	!	!LO:LB:g=original	!
=50-	=50-	=50-	=50-	=50-	=50-	=50-	=50-	=50-	=50-
*	*	*	*	*lig	*	*	*	*	*
1F	.	1F	-ni-	1A	-ge-	.	.	4a\	-ni-
.	.	.	.	.	.	.	.	4g\	.
.	.	.	.	.	.	.	.	4f\	.
.	.	.	.	.	.	.	.	4e\	.
!LO:TX:t=P:problem=kreska pseudotaktowa	!	!	!	!	!	!	!	!	!
1BB-X	.	1BB-X	-ge-	1B-X	.	1d	-ni-	2d/	-ge-
.	.	.	.	.	.	.	.	2dd\	.
*	*	*	*	*Xlig	*	*	*	*	*
=51-	=51-	=51-	=51-	=51-	=51-	=51-	=51-	=51-	=51-
*	*	*	*	*	*	*lig	*	*	*
1C	-	4C\	.	1.G	.	1e-X	-ge-	2cc\	.
.	.	4D\	.	.	.	.	.	.	.
.	.	4E-X\	.	.	.	.	.	2b-X\	.
.	.	4C\	.	.	.	.	.	.	.
!LO:TX:t=P:problem=kreska pseudotaktowa	!	!	!	!	!	!	!	!	!
*	*	*	*	*	*	*col	*	*	*
1D	4	2.D\	.	.	.	2.d\	.	2.a\	.
!LO:TX:b:t=P:problem=# below w bc	!	!	!	!LO:TX:b:t=P:problem=♯ below	!	!	!	!	!
.	#3	.	.	2F#X/	-ni-	.	.	.	.
*	*	*	*	*	*	*Xlig	*	*	*
.	.	4D\	-ni-	.	.	4d\	-ni-	4a\	ni-
*	*	*	*	*	*	*Xcol	*	*	*
=52-	=52-	=52-	=52-	=52-	=52-	=52-	=52-	=52-	=52-
*	*	*	*	*custos:F	*	*custos:B	*	*	*
!LO:TX:t=P:problem=kreska pseudotaktowa	!	!	!	!	!	!	!	!	!
0GG	.	0GG	-te	0G	-te	1d	-te	2g\	-te
.	.	.	.	.	.	.	.	1d	Je-
!	!	!	!	!	!	!LO:LB:g=original	!	!	!
.	.	.	.	.	.	2r	.	.	.
.	.	.	.	.	.	2B\	Je-	2g\	-ſu
!	!	!	!	!LO:LB:g=original	!	!	!	!	!
=53-	=53-	=53-	=53-	=53-	=53-	=53-	=53-	=53-	=53-
1D	-	1D	Je-	1Fny	Je-	0d	-su	1.a	chri-
!LO:TX:t=P:problem=kreska pseudotaktowa	!	!	!	!	!	!	!	!	!
1GG	-	1GG	-ſu	1B-X	-ſu	.	.	.	.
.	.	.	.	.	.	.	.	1g\	.
=54-	=54-	=54-	=54-	=54-	=54-	=54-	=54-	=54-	=54-
*	*	*	*ij	*lig	*	*	*	*	*
1D	.	1D	Je-	1A	chri-	0d	Je-	.	.
.	.	.	.	.	.	.	.	4f/	.
.	.	.	.	.	.	.	.	4e/	.
!LO:TX:t=P:problem=kreska pseudotaktowa	!	!	!	!	!	!	!	!	!
1BB-X	.	1BB-X	-ſu	1B-X	.	.	.	2d/	-ſte
.	.	.	.	.	.	.	.	2dd\	Je-
*	*	*	*Xij	*Xlig	*	*	*	*	*
=55-	=55-	=55-	=55-	=55-	=55-	=55-	=55-	=55-	=55-
*	*	*lig	*	*lig	*	*	*	*	*
1C	.	1C	Je-	1G	.	1e-X	-ſu	2cc\	-ſu
.	.	.	.	.	.	.	.	1b-X	chri-
!LO:TX:t=P:problem=fragment nieczytelny	!	!	!	!LO:TX:b:t=P:problem=♯ below	!	!	!	!	!
1Dyy	.	1D	.	1F#X	.	2.d\	Je-	.	.
.	.	.	.	.	.	.	.	2a\	.
.	.	.	.	.	.	4c\	.	.	.
*	*	*Xlig	*	*Xlig	*	*	*	*	*
!LO:LB:g=original	!	!	!	!	!	!	!	!	!
=56-	=56-	=56-	=56-	=56-	=56-	=56-	=56-	=56-	=56-
*	*	*	*	*lig	*	*	*	*	*
!	!	!	!	!LO:TX:a:t=2	!	!	!	!	!
2.E-X\	.	2.E-X\	.	0G	.	2B-X\	.	2g\	.
!	!	!	!	!	!	!	!	!LO:LB:g=original	!
.	.	.	.	.	.	1e-X	.	1g	.
4D\	.	4D\	.	.	.	.	.	.	.
2C\	-	2C\	.	.	.	.	.	.	.
*	*	*custos:C	*	*	*	*	*	*	*
!LO:TX:t=P:problem=kreska pseudotaktowa	!	!	!	!	!	!	!	!	!
2BBny\	6	2BBny\	.	.	.	2d\	.	2f/	.
!	!	!LO:LB:g=original	!	!	!	!	!	!	!
=57-	=57-	=57-	=57-	=57-	=57-	=57-	=57-	=57-	=57-
*	*	*lig	*	*	*	*	*	*	*
!	!	!	!	!LO:TX:a:t=2	!	!	!	!	!
1C	-	1C	.	0A	.	2c\	.	4e/	.
!	!	!	!	!	!	!	!	!LO:TX:b:t=P:problem=# below	!
.	.	.	.	.	.	.	.	4f#X/	.
.	.	.	.	.	.	2e-X\	-ſu	1g	.
!LO:TX:t=P:problem=kreska pseudotaktowa	!	!	!	!	!	!	!	!	!
1D	4	1D	.	.	.	1.d	chri-	.	.
!LO:TX:b:t=P:problem=# below w bc	!	!	!	!	!	!	!	!LO:TX:b:t=P:problem=# below	!
.	#3	.	.	.	.	.	.	2f#X/	.
*	*	*Xlig	*	*Xlig	*	*	*	*	*
=58-	=58-	=58-	=58-	=58-	=58-	=58-	=58-	=58-	=58-
!	!	!	!	!LO:TX:a:t=4	!	!	!	!	!
2BB\	6	2BB/	-ſu	00G\	-ſte	.	.	0g	-ſte
1C	.	1C	chri-	.	.	1e-X	.	.	.
4BB\	.	4BB/	.	.	.	4d\	.	.	.
!LO:TX:t=P:problem=kreska pseudotaktowa	!	!	!	!	!	!	!	!	!
4AA\	.	4AA/	.	.	.	4c\	.	.	.
=59-	=59-	=59-	=59-	=59-	=59-	=59-	=59-	=59-	=59-
2BB\	.	2BB/	.	.	.	2d\	.	2r	.
2C\	.	2C/	.	.	.	2e-X\	.	2.g\	Do-
*	*	*	*	*	*	*custos:e	*	*	*
!LO:TX:t=P:problem=kreska pseudotaktowa	!	!	!	!	!	!	!	!	!
1GG	8	1GG	-ſte	.	.	1d	-ſte	.	.
.	.	.	.	.	.	.	.	4g\	-mi-
.	7	.	.	.	.	.	.	2g\	-ne
!	!	!	!	!	!	!LO:PB:g=original	!	!	!
=60-	=60-	=60-	=60-	=60-	=60-	=60-	=60-	=60-	=60-
1C	.	2r	.	1r	.	2r	.	1g	De-
.	.	2.C\	Do-	.	.	2.eny\	Do-	.	.
!LO:TX:t=P:problem=kreska pseudotaktowa	!	!	!	!	!	!	!	!	!
1C	.	.	.	2r	.	.	.	2g\	-us
.	.	4C\	-mi-	.	.	4e\	-mi-	.	.
.	.	2C\	-ne	2.c\	Do-	2e\	-ne	2.cc\	A-
=61-	=61-	=61-	=61-	=61-	=61-	=61-	=61-	=61-	=61-
1.C	.	1C	De-	.	.	1.e	De-	.	.
.	.	.	.	4c\	-mi-	.	.	4bny\	.
.	.	.	.	2c\	-ne	.	.	2a\	.
.	.	2C\	-us	1c	De-	.	.	2g\	-gn(us)
!LO:TX:t=P::problem=kreska pseudotaktowa&colon;między nutą a kropką	!	!	!	!	!	!	!	!	!
2.F\	.	2.F\	A-	.	.	2c\	-us	2.a\	De-
=62-	=62-	=62-	=62-	=62-	=62-	=62-	=62-	=62-	=62-
.	.	.	.	1A	-us	2.f\	A-	.	.
4Eny\	.	4Eny\	.	.	.	.	.	4g\	.
*	*	*	*	*	*	*	*	*custos:g	*
4D/	.	4D\	.	.	.	.	.	2fny\	.
!LO:PB:g=original	!	!	!	!	!	!	!	!	!
!LO:TX:t=P:problem=fragment nieczytelny	!	!	!	!	!	!	!	!	!
4C/yy	.	4C\	.	.	.	4e\	.	.	.
!	!	!	!	!	!	!	!	!LO:LB:g=original	!
2BB-X/	.	2BB-X/	.	2B-X\	A-	4d\	.	2g\	.
.	.	.	.	.	.	4c\	.	.	.
*	*	*	*	*custos:F	*	*	*	*	*
2AA/	.	2AA/	-gn(us)	2c\	-gn(us)	1c\	gn(us)	1a\	.
!	!	!	!	!LO:LB:g=original	!	!	!	!	!
=63-	=63-	=63-	=63-	=63-	=63-	=63-	=63-	=63-	=63-
1D	.	1D	De-	1Fny	De-	.	.	.	.
.	.	.	.	.	.	2Bny/	De-	4g\	.
.	.	.	.	.	.	.	.	4f\	.
*	*	*custos:F	*	*	*	*	*	*	*
!LO:TX:t=P:problem=kreska pseudotaktowa	!	!	!	!	!	!	!	!	!
1C	8	1C	-i	2C/	-i	1c	-i	1g	.
.	.	.	.	2.c\	fi-	.	.	.	.
!	!	!LO:LB:g=original	!	!	!	!	!	!	!
=64-	=64-	=64-	=64-	=64-	=64-	=64-	=64-	=64-	=64-
2C/	.	2r	.	.	.	2r	.	1f	-i
.	7	.	.	4Bny\	-li-	.	.	.	.
2.F\	.	2.F\	fi-	2A\	-us	2.a\	fi-	.	.
!	!	!	!	!LO:TX:t=P:problem=przekreślona synkopowana wartość	!	!	!	!	!
.	.	.	.	0A	pa-	.	.	2r	.
4E\	.	4E\	-li-	.	.	4g\	-li-	.	.
!LO:TX:t=P:problem=kreska pseudotaktowa	!	!	!	!	!	!	!	!	!
2D\	.	2D\	-uſ	.	.	2f\	-us	2.a\	fi-
=65-	=65-	=65-	=65-	=65-	=65-	=65-	=65-	=65-	=65-
2C#X/	6	2C#X/	pa-	.	.	2e\	pa-	.	.
.	.	.	.	.	.	.	.	4g\	-li-
2D/	.	2D/	.	.	.	1d	.	2f\	-us
0AA	4	0AA	.	0A	-tris	.	.	2f\	pa-
!LO:TX:b:t=P:problem=# below w bc	!	!	!	!	!	!LO:TX:b:t=P:problem=♯ below	!	!	!
.	#3	.	.	.	.	4c#X/	.	4e/	.
.	.	.	.	.	.	4B/	.	4d/	.
=66-	=66-	=66-	=66-	=66-	=66-	=66-	=66-	=66-	=66-
!	!	!	!	!	!	!LO:TX:b:t=P:problem=♯ below	!	!	!
.	.	.	.	.	.	1c#X	.	1e	.
2D/	.	2D/	-tris	2r	.	2d,<\	-tris	2f,<\	-tris
!LO:TX:b:t=Qui tollis	!	!	!	!	!	!	!	!	!
!LO:TX:t=P:problem=kreska pseudotaktowa	!	!	!	!	!	!	!	!	!
2BB-X/	.	2BB-X/	qui	2d\	qui	2f\	qui	2b-X\	Qui
=67-	=67-	=67-	=67-	=67-	=67-	=67-	=67-	=67-	=67-
1BB-X	.	1BB-y	tol-	1d	tol-	1f	tol-	1b-y	tol-
*	*	*	*	*	*	*custos:a	*	*	*
2FF/	.	2FF/	-lis	1c	-lis	2f\	-lis	1a	-lis
!	!	!	!	!	!	!LO:LB:g=original	!	!	!
2F\	.	2F\	pec-	.	.	2a\	pec-	.	.
=68-	=68-	=68-	=68-	=68-	=68-	=68-	=68-	=68-	=68-
2D\	.	2D\	-ca-	2r	.	2f\	-ca-	2dd\	pec-
2AA/	6	2AA/	-ta	2c\	pec-	2cny\	-ta	1cc	-ca-
*custos:FF	*	*	*	*	*	*	*	*	*
!	!	!	!	!LO:SIC:v:s=2.G\	!	!	!	!	!
0Cny	3	0Cny	mun-	2.A\	-ca-	2e\	mun-	.	.
.	4	.	.	.	.	1f\	.	2bny\	-ta
.	.	.	.	4F\	-ta	.	.	.	.
=69-	=69-	=69-	=69-	=69-	=69-	=69-	=69-	=69-	=69-
.	.	.	.	1G	mun-	.	.	1cc	m(un)-
.	3	.	.	.	.	2e\	.	.	.
*	*	*	*	*	*	*	*	*custos:a	*
!LO:LB:g=original	!	!	!	!	!	!	!	!	!
2FF/	.	2FF/	-di	2A\	-di	2f,<\	-di	2a\	-di
!	!	!	!	!LO:TX:t=P:problem=przekreślona synkopowana wartość	!	!	!	!LO:PB:g=original	!
1F\	.	1F\	mi-	1A\	mi-	1f\	mi-	1a\	Mi-
=70-	=70-	=70-	=70-	=70-	=70-	=70-	=70-	=70-	=70-
!LO:TX:t=P:problem=kreska pseudotaktowa	!	!	!	!	!	!	!	!	!
2D\	.	2D/	-ſe-	2A\	-se-	2f\	-ſe-	2a\	-ſe-
2D\	.	2D/	-re-	2d\	-re-	2f\	-re-	1.a	-re-
*	*	*	*	*custos:d	*	*	*	*	*
2C#X\	6	2C#X/	-re	2e\	-re	2e\	-re	.	.
!	!	!	!	!LO:PB:g=original	!	!	!	!	!
=71-	=71-	=71-	=71-	=71-	=71-	=71-	=71-	=71-	=71-
!LO:TX:t=P:problem=kreska pseudotaktowa	!	!	!	!	!	!	!	!	!
!LO:TX:b:t=P:problem=# below w bc	!	!	!	!	!	!	!	!	!
0D	#3	0D	no-	0d	no-	2f#X\	no-	.	.
.	4	.	.	.	.	1g	.	2b-X\	-re
.	.	.	.	.	.	.	.	1a	no-
.	#3	.	.	.	.	2f#\	.	.	.
=72-	=72-	=72-	=72-	=72-	=72-	=72-	=72-	=72-	=72-
*	*	*custos:E	*	*	*	*	*	*	*
!	!	!	!	!	!	!	!	!LO:N:acc=#	!
2GG/	.	2GG/	-biſ	2B\	-bis	2g,<\	-bis	2bn\	-bis
!	!	!LO:LB:g=original	!	!	!	!	!	!	!
2E\	#	2E\	qui	2B\	qui	2g#X\	Qui	2g#X\	qui
!LO:TX:t=P:problem=kreska pseudotaktowa	!	!	!	!	!	!	!	!	!
1AA	-	1AA	tol-	1c	tol-	1e	tol-	1a	tol-
=73-	=73-	=73-	=73-	=73-	=73-	=73-	=73-	=73-	=73-
2E\	.	2E\	-lis	2B\	-lis	2e\	-lis	2gny\	-lis
*	*	*	*	*	*	*custos:f	*	*	*
2Cny/	.	2Cny\	pec-	2e\	pec-	2gny\	pec-	2cc\	pec-
!LO:TX:t=P::problem=kreska pseudotaktowa&colon;między nutą a kropką	!	!	!	!	!LO:LB:g=original	!	!	!	!
1.F	.	1.F	-ca-	1c	-ca-	1.fny	-ca-	2cc\	-ca-
.	.	.	.	.	.	.	.	1a\	-ta
=74-	=74-	=74-	=74-	=74-	=74-	=74-	=74-	=74-	=74-
.	.	.	.	1c	-ta	.	.	.	.
2E\	.	2E\	-ta	.	.	1g	-ta	2g\	.
!LO:TX:t=P:problem=kreska pseudotaktowa	!	!	!	!	!	!	!	!	!
*	*	*lig	*	*lig	*	*	*	*	*
1A	.	1A	mun-	1c	mun-	.	.	4cc\	.
.	.	.	.	.	.	.	.	4a\	.
*	*below	*	*	*	*	*	*	*	*
!	!	!	!	!	!	!LO:TX:b:t=P:problem=♯ below	!	!	!
.	#	.	.	.	.	2f#X\	mun-	1cc\	mun-
=75-	=75-	=75-	=75-	=75-	=75-	=75-	=75-	=75-	=75-
*	*above	*	*	*	*	*	*	*	*
1G	4	1G	.	1d	.	1g	.	.	.
.	3	.	.	.	.	.	.	2b\	.
*	*	*Xlig	*	*Xlig	*	*	*	*	*
!LO:TX:t=P:problem=kreska pseudotaktowa	!	!	!	!	!	!	!	!	!
1C	.	0C	-di	1c	-di	2e,<\	-di	1cc	-di
.	.	.	.	.	.	2.g\	Su-	.	.
=76-	=76-	=76-	=76-	=76-	=76-	=76-	=76-	=76-	=76-
1C	.	.	.	2r	.	.	.	0r	.
.	.	.	.	.	.	4fny\	-sci-	.	.
.	.	.	.	2.c\	Su-	2e\	-pe	.	.
2FF/	.	2r	.	.	.	2.a\	de-	.	.
.	.	.	.	4B\	-sci-	.	.	.	.
!LO:TX:t=P::problem=kreska pseudotaktowa&colon;między nutą a kropką	!	!	!	!	!	!	!	!	!
2.F\	.	2.F\	Su-	2A\	-pe	.	.	.	.
.	.	.	.	.	.	4g\	-pre-	.	.
=77-	=77-	=77-	=77-	=77-	=77-	=77-	=77-	=77-	=77-
.	.	.	.	4A\	de-	2f\	-ca-	2r	.
4E\	.	4E\	-sci-	4G\	-pre-	.	.	.	.
*custos:G	*	*	*	*	*	*	*	*	*
2D\	.	2D\	-pe	2F\	-ca-	2a\	-ti-	2.dd\	Su-
!LO:LB:g=original	!	!	!	!	!	!	!	!	!
2.G\	.	2.G\	de-	2G\	-ti-	1.g	-o-	.	.
.	.	.	.	.	.	.	.	4cc\	-sci-
*	*	*	*	*	*	*	*	*custos:ee	*
.	.	.	.	1G/	-o-	.	.	2b\	-pe
4F\	.	4F\	-pre-	.	.	.	.	.	.
!	!	!	!	!	!	!	!	!LO:LB:g=original	!
=78-	=78-	=78-	=78-	=78-	=78-	=78-	=78-	=78-	=78-
2E\	.	2E\	-ca-	.	.	.	.	2ee\	de-
2F\	.	2F\	-ti-	2A\	-nem	2f\	-nem	2cc\	-pre-
!LO:TX:t=P::problem=kreska pseudotaktowa&colon;między nutą a kropką	!	!	!	!	!	!	!	!	!
1.D	.	1.D	-o-	1F	no-	2.f\	no-	2dd\	-ca-
.	.	.	.	.	.	.	.	2a\	-ti-
.	.	.	.	.	.	8e\L	.	.	.
.	.	.	.	.	.	8d\J	.	.	.
=79-	=79-	=79-	=79-	=79-	=79-	=79-	=79-	=79-	=79-
*	*	*	*	*custos:c	*	*	*	*	*
.	.	.	.	1F	-ſtra(m)	2.f\	.	2b-X\	-o-
2AA/	6	2AA/	-ne(m)	.	.	.	.	2cc\	-nem
.	.	.	.	.	.	4d\	.	.	.
!LO:TX:t=P:problem=kreska pseudotaktowa	!	!	!	!LO:LB:g=original	!	!	!	!	!
0C	3	0C	no-	2r	.	4e\	.	2cc\	no-
.	.	.	.	.	.	4e\	.	.	.
.	4	.	.	2c\	qui	1f\	.	4b-X\	.
.	.	.	.	.	.	.	.	4a\	.
=80-	=80-	=80-	=80-	=80-	=80-	=80-	=80-	=80-	=80-
.	.	.	.	1c	ſe-	.	.	1g	.
.	3	.	.	.	.	2e\	.	.	.
*	*	*custos:F	*	*	*	*custos:f	*	*	*
2FF/	.	2FF/	-ſtra(m)	1A	-deſ	1f	-ſtra(m)	2a\	-ſtra(m)
!LO:TX:b:t=qui ſedes	!	!LO:PB:g=original	!	!	!	!	!	!	!
2F\	.	2F\	qui	.	.	.	.	2a\	qui
!	!	!	!	!	!	!LO:LB:g=original	!	!	!
=81-	=81-	=81-	=81-	=81-	=81-	=81-	=81-	=81-	=81-
1F	.	1F	ſe-	2r	.	2r	.	1a	Se-
.	.	.	.	2c\	ad	2f\	qui	.	.
!LO:TX:t=P:problem=kreska pseudotaktowa	!	!	!	!	!	!	!	!	!
1D	.	1D	-des	2.d\	dex-	1e	ſe-	2f/	-deſ
.	.	.	.	.	.	.	.	2a\	ad
.	.	.	.	4c\	-te-	.	.	.	.
=82-	=82-	=82-	=82-	=82-	=82-	=82-	=82-	=82-	=82-
1G	.	2r	.	2B\	-ra(m)	1d	-des	2.bny\	dex-
*	*	*	*	*	*ij	*	*	*	*
.	.	2G\	ad	2B\	ad	.	.	.	.
.	.	.	.	.	.	.	.	4b\	-te-
2.A\	.	2.A\	dex-	2.c\	dex-	2r	.	1a	-ram
.	.	.	.	.	.	2e\	ad	.	.
!LO:TX:t=P:problem=kreska pseudotaktowa	!	!	!	!	!	!	!	!	!
4G\	.	4G\	-te-	4B\	-te-	.	.	.	.
=83-	=83-	=83-	=83-	=83-	=83-	=83-	=83-	=83-	=83-
1F	.	0F	-ra(m)	2A\	-ram	2.a\	dex-	1a	pa-
*	*	*	*	*	*Xij	*	*	*	*
.	.	.	.	2.d\	pa-	.	.	.	.
.	.	.	.	.	.	4g\	-te-	.	.
*	*	*	*	*	*	*	*	*custos:g	*
!LO:TX:t=P:problem=kreska pseudotaktowa	!	!	!	!	!	!	!	!	!
1F	.	.	.	.	.	2f\	-ram	1a	-tris
.	.	.	.	4c\	.	.	.	.	.
.	.	.	.	1c\	.	1e\	pa-	.	.
=84-	=84-	=84-	=84-	=84-	=84-	=84-	=84-	=84-	=84-
*custos:C	*	*	*	*	*	*	*	*	*
!LO:TX:t=P:problem=kreska pseudotaktowa	!	!	!	!	!	!	!LO:LB:g=original	!	!
0G	.	0G	pa-	.	.	.	.	2r	.
.	.	.	.	4B\	.	4d\	.	1g	Mi-
.	2	.	.	4A\	.	4c\	.	.	.
.	3	.	.	1B	.	1d	.	.	.
.	.	.	.	.	.	.	.	2g\	-ſe-
!LO:LB:g=original	!	!	!	!	!	!	!	!	!
=85-	=85-	=85-	=85-	=85-	=85-	=85-	=85-	=85-	=85-
2C/	.	2C\	.	2c\	-tris	2e\	-tris	2.g\	-re-
1C	.	1C	-t[r]iſ	2G/	mi-	1e	mi-	.	.
.	.	.	.	.	.	.	.	8a\L	.
.	.	.	.	.	.	.	.	8b\J	.
*	*	*	*	*custos:G	*	*	*	*	*
.	.	.	.	2F/	-se-	.	.	1cc	.
!LO:TX:t=P:problem=kreska pseudotaktowa	!	!	!LO:LB:g=original	!	!	!	!	!	!
2C/	.	2C\	mi-	2.G/	-re-	2e\	-se-	.	.
=86-	=86-	=86-	=86-	=86-	=86-	=86-	=86-	=86-	=86-
1C	.	2.C\	se-	.	.	2.e\	-re-	1.cc	-re
.	.	.	.	8A\L	.	.	.	.	.
.	.	.	.	8B\J	.	.	.	.	.
.	.	.	.	1c	.	.	.	.	.
.	.	8D\L	-re-	.	.	8f\L	.	.	.
.	.	8E\J	.	.	.	8g\J	.	.	.
!LO:TX:t=P:problem=kreska pseudotaktowa	!	!	!	!	!	!	!	!	!
1F	.	1F	.	.	.	2.a\	.	.	.
.	.	.	.	2c\	-re	.	.	1a\	no-
.	.	.	.	.	.	4g\	.	.	.
=87-	=87-	=87-	=87-	=87-	=87-	=87-	=87-	=87-	=87-
1D	.	1D	re	1.d	no-	4f\	.	.	.
.	.	.	.	.	.	4e\	.	.	.
*	*	*	*	*	*	*custos:e	*	*	*
.	.	.	.	.	.	2f\	re	2b\	.
!LO:TX:b:t=P:problem=# below w bc	!	!	!	!	!	!LO:LB:g=original	!	!	!
0E	#3	0E	no-	.	.	0e	no-	2g#X\	.
.	4	.	.	2c\	.	.	.	1a\	.
=88-	=88-	=88-	=88-	=88-	=88-	=88-	=88-	=88-	=88-
.	.	.	.	1B	.	.	.	.	.
.	#3	.	.	.	.	.	.	2g#y\	.
!LO:TX:t=P:problem=kreska pseudotaktowa	!	!	!	!	!	!	!	!	!
1AA	.	1AA	-bis	2.c#X\	.	2e,<\	-bis	1a	-bis
.	.	.	.	.	.	2.e\	Qvo-	.	.
.	.	.	.	4B\	.	.	.	.	.
=89-	=89-	=89-	=89-	=89-	=89-	=89-	=89-	=89-	=89-
2AA/	.	2r	.	1A	-bis	.	.	2r	.
.	.	.	.	.	.	4d\	-ni-	.	.
!LO:TX:b:t=Quoniam	!	!	!	!	!	!	!	!	!
2.F\	.	2.F\	quo-	.	.	1c	-a(m)	2.a\	Quo-
.	.	.	.	1r	.	.	.	.	.
4E\	.	4E\	-ni-	.	.	.	.	4gny\	-ni-
*	*	*custos:C	*	*	*	*	*	*	*
!LO:TX:t=P:problem=kreska pseudotaktowa	!	!	!	!	!	!	!	!	!
2D\	.	2D\	-a(m)	.	.	2f\	tu	2f/	-am
!	!	!LO:LB:g=original	!	!	!	!	!	!	!
=90-	=90-	=90-	=90-	=90-	=90-	=90-	=90-	=90-	=90-
1C	.	1C	tu	1G	Quo-	2f\	ſo-	2g\	tu
.	.	.	.	.	.	2e\	-l(us)	1a	so-
!LO:TX:t=P:problem=kreska pseudotaktowa	!	!	!	!	!	!	!	!	!
1D	.	1D	so-	1F	-ni-	4e\	ſan-	.	.
.	.	.	.	.	.	4d\	.	.	.
*	*	*	*	*	*	*	*	*custos:a	*
.	.	.	.	.	.	1d\	.	2a\	-l(us)
!	!	!	!	!	!	!	!	!LO:LB:g=original	!
=91-	=91-	=91-	=91-	=91-	=91-	=91-	=91-	=91-	=91-
*	*	*	*	*lig	*	*	*	*	*
1AA	.	1AA	-l(us)	1E	-am	.	.	1a	San-
!	!	!	!	!	!	!LO:TX:b:t=P:problem=♯ below	!	!	!
.	.	.	.	.	.	2c#X/	.	.	.
2.D/	.	2.D/	ſan-	1F	.	1d	-ct(us)	1.a	-ctus
!LO:TX:t=P:problem=kreska pseudotaktowa	!	!	!	!	!	!	!	!	!
4C/	.	4C/	.	.	.	.	.	.	.
*	*	*	*	*Xlig	*	*	*	*	*
=92-	=92-	=92-	=92-	=92-	=92-	=92-	=92-	=92-	=92-
*	*	*lig	*	*lig	*	*	*	*	*
1BB-X	.	1BB-X	.	1D	tu	2r	.	.	.
.	.	.	.	.	.	2f\	tu	2b-X\	San-
*custos:FF	*	*	*	*	*	*	*	*	*
1C	4	1C	.	1C	.	2f\	ſo-	1g	.
.	3	.	.	.	.	2e\	-l(us)	.	.
*	*	*Xlig	*	*Xlig	*	*	*	*	*
!LO:LB:g=original	!	!	!	!	!	!	!	!	!
=93-	=93-	=93-	=93-	=93-	=93-	=93-	=93-	=93-	=93-
1FF	.	1FF	-ct(us)	1F	ſo-	4a\	ſan-	1a	-ct(us)
.	.	.	.	.	.	4g\	.	.	.
.	.	.	.	.	.	4f\	.	.	.
.	.	.	.	.	.	4e\	.	.	.
*	*	*	*	*custos:A	*	*	*	*	*
!LO:TX:t=P:problem=kreska pseudotaktowa	!	!	!	!	!	!	!	!	!
1G	.	1r	.	1G	-lus	1d	.	2r	.
.	.	.	.	.	.	.	.	2g\	tu
!	!	!	!	!LO:LB:g=original	!	!	!	!	!
=94-	=94-	=94-	=94-	=94-	=94-	=94-	=94-	=94-	=94-
*	*	*	*	*lig	*	*	*	*	*
*	*	*	*	*	*	*custos:d	*	*	*
2A\	#	2r	.	1A	San-	2c#X\	.	2e\	So-
!	!	!	!	!	!	!LO:LB:g=original	!	!	!
2D\	.	2D\	tu	.	.	2d\	-ct(us)	1a	-lus
!LO:TX:t=P:problem=kreska pseudotaktowa	!	!	!	!	!	!	!	!	!
1GG	-	1GG	so-	1B-X	.	1d	ſan-	.	.
.	.	.	.	.	.	.	.	2.g\	Do-
*	*	*	*	*Xlig	*	*	*	*	*
=95-	=95-	=95-	=95-	=95-	=95-	=95-	=95-	=95-	=95-
!LO:TX:t=P:problem=skreślona kreska półnuty	!	!	!	!	!	!	!	!	!
1E-X	.	1E-X	-lu(s)	1.G	.	1e-X	-ct(us)	.	.
.	.	.	.	.	.	.	.	4a\	.
.	.	.	.	.	.	.	.	4b-X\	.
.	.	.	.	.	.	.	.	4g\	.
2C\	6	2C/	Do-	.	.	2r	.	2.a\	.
*	*below	*	*	*	*	*	*	*	*
!LO:TX:t=P:problem=kreska pseudotaktowa	!	!	!	!LO:TX:b:t=P:problem=♯ below	!	!	!	!	!
2D\	#	2D/	-mi-	2F#X/	.	1d\	tu	.	.
.	.	.	.	.	.	.	.	4a\	mi-
=96-	=96-	=96-	=96-	=96-	=96-	=96-	=96-	=96-	=96-
!LO:TX:a:t=Vi	!	!	!	!	!	!	!	!	!
1GG	.	1GG	-n(us)	0G	-ctu(s)	.	.	1g	-n(us)
.	.	.	.	.	.	2G/	ſo-	.	.
!LO:TX:a:t=de	!	!	!	!	!	!	!	!	!
1G	.	2r	.	.	.	2.d\	-lus	2r	.
.	.	2G\	tu	.	.	.	.	1b-X\	tu
.	.	.	.	.	.	4eny\	.	.	.
=97-	=97-	=97-	=97-	=97-	=97-	=97-	=97-	=97-	=97-
1.F	.	1.F	ſo-	1.cny	tu	1.f	Do-	.	.
.	.	.	.	.	.	.	.	4a\	.
.	.	.	.	.	.	.	.	4g\	.
.	.	.	.	.	.	.	.	2a\	so-
2B-X\	.	2B-X\	-l(us)	2B-X\	ſo-	2d\	.	2b-X\	-l(us)
!	!	!	!	!	!	!	!	!LO:LB:g=original	!
=98-	=98-	=98-	=98-	=98-	=98-	=98-	=98-	=98-	=98-
*	*	*lig	*	*lig	*	*	*	*	*
1F	.	1F	Do-	1A	-lus	2f\	.	2cc\	tu
.	.	.	.	.	.	1d	.	2.dd\	So-
*	*	*custos:D	*	*	*	*	*	*	*
1G	.	1G	.	1G	.	.	.	.	.
.	.	.	.	.	.	.	.	4cc\	.
.	.	.	.	.	.	2d\	mi-	2b-X\	-lus
*	*	*Xlig	*	*Xlig	*	*	*	*	*
!	!	!LO:LB:g=original	!	!	!	!	!	!	!
=99-	=99-	=99-	=99-	=99-	=99-	=99-	=99-	=99-	=99-
0D	.	1.D	.	1A	Do-	0d	-n(us)	2.f#X\	Do-
.	.	.	.	.	.	.	.	4g\	.
*	*	*	*	*lig	*	*	*	*lig	*
.	.	.	.	1F#X	.	.	.	1a	.
.	.	2D\	-mi-	.	.	.	.	.	.
=100-	=100-	=100-	=100-	=100-	=100-	=100-	=100-	=100-	=100-
0GG	.	0.GG	-n(us)	1G	.	2r	.	1.g	.
.	.	.	.	.	.	2d\	tu	.	.
*	*	*	*	*Xlig	*	*	*	*Xlig	*
.	.	.	.	1G	mi-	1.e	ſo-	.	.
.	.	.	.	.	.	.	.	2g\	mi-
=101-	=101-	=101-	=101-	=101-	=101-	=101-	=101-	=101-	=101-
*custos:G	*	*	*	*	*	*	*	*	*
1GG	.	.	.	0G	-n(us)	.	.	1g	-n(us)
.	.	.	.	.	.	4d\	.	.	.
.	.	.	.	.	.	4cny\	.	.	.
*	*	*	*	*	*	*custos:c	*	*	*
!LO:LB:g=original	!	!	!	!	!	!	!	!	!
!LO:TX:t=P:problem=kreska pseudotaktowa	!	!	!	!	!	!	!	!	!
1G	.	2r	.	.	.	1B	-lus	2dd\	tu
.	.	2G\	tu	.	.	.	.	1ee\	So-
!	!	!	!	!	!	!LO:LB:g=original	!	!	!
=102-	=102-	=102-	=102-	=102-	=102-	=102-	=102-	=102-	=102-
1A	.	1A	ſo-	1c	tu	4c\	al-	.	.
.	.	.	.	.	.	4d\	.	.	.
.	.	.	.	.	.	4e\	.	1cc	-l(us)
.	.	.	.	.	.	4f\	.	.	.
!LO:TX:t=P:problem=kreska pseudotaktowa	!	!	!	!	!	!	!	!	!
1G	.	1G	-l(us)	1d	So-	2.g\	-tiſ-	.	.
.	.	.	.	.	.	.	.	2bny\	al-
.	.	.	.	.	.	4f\	-si-	.	.
=103-	=103-	=103-	=103-	=103-	=103-	=103-	=103-	=103-	=103-
*	*	*	*	*custos:G	*	*	*	*	*
1C	.	1C	al-	0c	-lus	0e,<	-m(us)	2cc\	.
.	.	.	.	.	.	.	.	2.g\	.
*	*above	*	*	*	*	*	*	*	*
2.Eny\	6	2.Eny\	-tiſ-	.	.	.	.	.	.
.	.	.	.	.	.	.	.	4fny\	.
.	.	.	.	.	.	.	.	4g\	.
!LO:TX:t=P:problem=kreska pseudotaktowa	!	!	!	!	!	!	!	!	!
4F\	.	4F\	.	.	.	.	.	4a\	.
!	!	!	!	!LO:LB:g=original	!	!	!	!	!
=104-	=104-	=104-	=104-	=104-	=104-	=104-	=104-	=104-	=104-
*	*	*	*	*lig	*	*	*	*	*
2G\	.	2G\	.	1G	al-	2d\	tu	2b\	-tiſ-
4F\	.	4F\	.	.	.	2e\	so-	4a\	.
4E\	.	4E\	.	.	.	.	.	4g\	-si-
*custos:BB	*	*	*	*	*	*	*	*	*
1F	.	1F	.	1A	.	2c\	-l(us)	1cc	-m(us)
.	.	.	.	.	.	2.f\	al-	.	.
*	*	*	*	*Xlig	*	*	*	*	*
!LO:LB:g=original	!	!	!	!	!	!	!	!LO:LB:g=original	!
=105-	=105-	=105-	=105-	=105-	=105-	=105-	=105-	=105-	=105-
*	*	*	*	*lig	*	*	*	*	*
1.BB-X	.	1.BB-X	.	1B-X	.	.	.	1r	.
.	.	.	.	.	.	4e\	.	.	.
.	.	.	.	.	.	2d\	.	.	.
.	.	.	.	1c	.	2e\	.	2r	.
!LO:TX:t=P:problem=kreska pseudotaktowa	!	!	!	!	!	!	!	!	!
2AA/	6	2AA/	.	.	.	2f\	.	2cc\	tu
*	*	*	*	*Xlig	*	*	*	*	*
=106-	=106-	=106-	=106-	=106-	=106-	=106-	=106-	=106-	=106-
*	*	*lig	*	*	*	*	*	*	*
1BB-X	.	1BB-X	.	1B-X	-tiſ-	4d\	.	1dd	So-
.	.	.	.	.	.	4e\	.	.	.
.	.	.	.	.	.	4f\	.	.	.
.	.	.	.	.	.	4g\	.	.	.
!LO:TX:t=P:problem=kreska pseudotaktowa	!	!	!	!	!	!	!	!	!
1FF	.	1FF	.	1A	-si-	4a\	.	2cc\	-l(us)
.	.	.	.	.	.	4e\	.	.	.
.	.	.	.	.	.	1f\	.	2a\	al-
*	*	*Xlig	*	*	*	*	*	*	*
=107-	=107-	=107-	=107-	=107-	=107-	=107-	=107-	=107-	=107-
!LO:TX:t=P:problem=kreska pseudotaktowa	!	!	!	!	!	!	!	!	!
0C	4	1.C	.	0G	-m(us)	.	.	1.cc	-tiſ-
.	3	.	.	.	.	4e\	.	.	.
.	.	.	.	.	.	4d\	.	.	.
.	.	.	.	.	.	2.e\	-tiſ-	.	.
.	.	2C/	si-	.	.	.	.	2cc\	-si-
.	.	.	.	.	.	4e\	-si-	.	.
=108-	=108-	=108-	=108-	=108-	=108-	=108-	=108-	=108-	=108-
*	*	*custos:BB	*	*	*	*	*	*	*
2FF/	.	1FF	-m(us)	1Fny	Je-	1f	-m(us)	1a	-m(us)
2F\	.	.	.	.	.	.	.	.	.
!LO:TX:t=P:problem=kreska pseudotaktowa	!	!LO:LB:g=original	!	!	!LO:LB:g=original	!	!	!	!
1BB-X	.	2r	.	0B-X	-ſu	2r	.	0r	.
.	.	2BB-X\	Je-	.	.	2d\	Je-	.	.
=109-	=109-	=109-	=109-	=109-	=109-	=109-	=109-	=109-	=109-
2E-X\	.	2E-X\	-ſu	.	.	2g\	ſu	.	.
*	*	*	*ij	*	*	*	*	*	*
2BB-X\	.	2BB-X/	Je-	.	.	2.d\	chri-	.	.
!LO:TX:t=P:problem=kreska pseudotaktowa	!	!	!	!	!	!	!	!	!
*	*	*	*	*lig	*	*	*	*	*
1D	.	1D	-ſu	1A	chri-	.	.	2a\	Je-
*	*	*	*Xij	*	*	*	*	*	*
.	.	.	.	.	.	4e\	.	.	.
.	.	.	.	.	.	4f\	.	2dd\	-ſu
.	.	.	.	.	.	4d\	.	.	.
=110-	=110-	=110-	=110-	=110-	=110-	=110-	=110-	=110-	=110-
2GG/	.	2GG/	Je-	1B-X	.	2g\	.	4dd\	chri-
.	.	.	.	.	.	.	.	4cc\	.
2BB-X/	.	2BB-X/	.	.	.	1f	.	4b-X\	.
.	.	.	.	.	.	.	.	4a\	.
*	*	*	*	*Xlig	*	*	*	*	*
!LO:TX:t=P:problem=kreska pseudotaktowa	!	!	!	!	!	!	!	!	!
*	*	*	*	*lig	*	*	*	*	*
1C	.	1C	-ſu	1G	.	.	.	2g\	.
.	.	.	.	.	.	2e\	.	2cc\	.
=111-	=111-	=111-	=111-	=111-	=111-	=111-	=111-	=111-	=111-
!	!	!	!	!LO:TX:b:t=P:problem=♯ below	!	!	!	!	!
1D	.	1D	chri-	1F#X	.	1.d	.	2b-X\	.
.	.	.	.	.	.	.	.	2a\	.
*	*	*	*	*Xlig	*	*	*	*	*
!LO:TX:t=P:problem=kreska pseudotaktowa	!	!	!	!	!	!	!	!	!
1E-X	.	1E-X	.	1G	.	.	.	2.g\	.
.	.	.	.	.	.	2c\	.	.	.
.	.	.	.	.	.	.	.	4a\	.
=112-	=112-	=112-	=112-	=112-	=112-	=112-	=112-	=112-	=112-
!	!	!	!	!	!	!	!	!LO:TX:b:t=P:problem=♯ below	!
2D/	.	2D/	.	0A	.	2d\	.	2f#X/	.
*custos:D	*	*	*	*	*	*	*	*	*
2C/	6	2C/	.	.	.	2e-X\	.	1g	.
!LO:LB:g=original	!	!	!	!	!	!	!	!	!
!LO:TX:t=P:problem=kreska pseudotaktowa	!	!	!	!	!	!	!	!	!
1D	4	1D	.	.	.	1d	.	.	.
!LO:TX:b:t=P:problem=# below w bc	!	!	!	!	!	!	!	!LO:TX:b:t=P:problem=♯ below	!
.	#3	.	.	.	.	.	.	2f#X/	.
=113-	=113-	=113-	=113-	=113-	=113-	=113-	=113-	=113-	=113-
*	*	*	*	*	*	*	*	*2\left	*
*	*	*	*	*	*	*	*	*custos:b	*
!LO:TX:t=P:problem=kreska pseudotaktowa	!	!	!	!	!	!	!	!	!
0GG	.	0GG	-ste	0G	-ſte	0d	-ſte	2g\	-ſte
!	!	!	!	!	!	!	!	!LO:LB:g=original	!
*	*	*	*	*	*	*	*	*2\right	*
.	.	.	.	.	.	.	.	2bny\	Cu(m)
.	.	.	.	.	.	.	.	2dd\	San-
.	.	.	.	.	.	.	.	2b\	-cto
=114-	=114-	=114-	=114-	=114-	=114-	=114-	=114-	=114-	=114-
!LO:TX:b:t=Cu(m) ſancto	!	!	!	!	!	!	!	!	!
2C/	.	00r	.	0r	.	2r	.	4ee\	ſpi-
.	.	.	.	.	.	.	.	4dd\	.
2C/	.	.	.	.	.	2eny\	Cu(m)	4cc\	.
.	.	.	.	.	.	.	.	4b\	.
2F\	.	.	.	.	.	2f\	San-	4a\	.
.	.	.	.	.	.	.	.	4b\	.
!LO:TX:t=P:problem=kreska pseudotaktowa	!	!	!	!	!	!	!	!	!
2C/	.	.	.	.	.	2d\	-cto	4cc\	.
.	.	.	.	.	.	.	.	4b\	.
=115-	=115-	=115-	=115-	=115-	=115-	=115-	=115-	=115-	=115-
*	*	*	*	*custos:G	*	*	*	*	*
1F	.	.	.	1r	.	4a\	ſpi-	4a\	.
.	.	.	.	.	.	4g\	.	4b\	.
.	.	.	.	.	.	4f\	.	1cc	.
.	.	.	.	.	.	4e\	.	.	.
!LO:TX:t=P:problem=kreska pseudotaktowa	!	!	!LO:LB:g=original	!	!	!	!	!	!
1G	.	.	.	2r	.	2.d\	.	.	.
.	.	.	.	2G/	Cu(m)	.	.	2b\	ri-
.	.	.	.	.	.	4d\	-ri-	.	.
=116-	=116-	=116-	=116-	=116-	=116-	=116-	=116-	=116-	=116-
*	*	*	*	*	*	*custos:e	*	*	*
2A\	.	1r	.	2A/	ſan-	1c	-tu	1cc	-tu
2F\	.	.	.	2Fny/	-cto	.	.	.	.
*	*	*	*	*	*	*	*	*	*ij
!LO:TX:t=P:problem=kreska pseudotaktowa	!	!	!	!	!LO:PB:g=original	!	!	!	!
1C	.	2r	.	4c\	ſpi-	2r	.	2g/	Cum
.	.	.	.	4Bny\	.	.	.	.	.
.	.	2C/	Cu(m)	4A\	.	2e\	Cu(m)	1a\	San-
.	.	.	.	4G\	.	.	.	.	.
=117-	=117-	=117-	=117-	=117-	=117-	=117-	=117-	=117-	=117-
2D/	.	2D/	San-	1.F	.	2f\	ſan-	.	.
2AA/	6	2AA/	-cto	.	.	2c/	-cto	2fny/	-cto
!LO:TX:t=P:problem=kreska pseudotaktowa	!	!	!	!	!	!	!	!	!
1C	4	2.C/	Spi-	.	.	2.c/	ſpi-	2.g\	ſpi-
.	3	.	.	2E/	-ri-	.	.	.	.
.	.	4C/	-ri-	.	.	4c/	-ri-	4g\	-ri-
=118-	=118-	=118-	=118-	=118-	=118-	=118-	=118-	=118-	=118-
1FF	.	1FF	-tu	1F	-tu	2c/	-tu	1a	-tu
*	*	*	*	*	*	*	*	*	*Xij
.	.	.	.	.	.	2f\	In	.	.
!LO:TX:t=P:problem=kreska pseudotaktowa	!	!LO:LB:g=original	!	!	!	!	!	!	!
1C	.	00r	.	2r	.	4e\	glo-	0r	.
.	.	.	.	.	.	4f\	-ri-	.	.
.	.	.	.	2c\	In	2g\	-a	.	.
=119-	=119-	=119-	=119-	=119-	=119-	=119-	=119-	=119-	=119-
1F	.	.	.	4F/	glo-	4a\	De-	.	.
.	.	.	.	4G/	-ri-	4g\	-i	.	.
.	.	.	.	2A/	-a	4f\	pa-	.	.
.	.	.	.	.	.	4e\	.	.	.
*custos:c	*	*	*	*	*	*	*	*	*
1B-X	.	.	.	4B-X\	De-	4d\	-tris	1r	.
.	.	.	.	4c\	-i	4e\	.	.	.
.	.	.	.	4d\	pa-	1f\	A-	.	.
.	.	.	.	4B-\	-tris	.	.	.	.
!LO:LB:g=original	!	!	!	!	!	!	!	!	!
=120-	=120-	=120-	=120-	=120-	=120-	=120-	=120-	=120-	=120-
*	*below	*	*	*	*	*	*	*	*
1c	4	.	.	1c	A-	.	.	2r	.
.	3	.	.	.	.	2e\	.	2cc\	In
!LO:TX:t=P:problem=kreska pseudotaktowa	!	!	!	!	!	!	!	!	!
1F	.	2r	.	0F	-me(n)	1f	-men	4a\	glo-
.	.	.	.	.	.	.	.	4b\	-ri-
*	*	*	*	*	*	*	*	*custos:dd	*
.	.	2F\	In	.	.	.	.	2cc\	-a
!	!	!	!	!	!	!	!	!LO:LB:g=original	!
=121-	=121-	=121-	=121-	=121-	=121-	=121-	=121-	=121-	=121-
1BB-X	.	4BB-X\	glo-	.	.	1r	.	4dd\	De-
.	.	4C\	-ri-	.	.	.	.	4cc\	-i
.	.	2D\	-a	.	.	.	.	4b-X\	Pa-
.	.	.	.	.	.	.	.	4a\	.
!LO:TX:t=P:problem=kreska pseudotaktowa	!	!	!	!	!	!	!	!	!
1E-X	.	4E-X\	De-	1r	.	2r	.	4g\	-tris
.	.	4F\	.	.	.	.	.	4a\	.
.	.	4G\	-i	.	.	2g\	In	1b-X\	A-
.	.	4E-\	.	.	.	.	.	.	.
=122-	=122-	=122-	=122-	=122-	=122-	=122-	=122-	=122-	=122-
1F	.	1F	pa-	2r	.	4c\	glo-	.	.
.	.	.	.	.	.	4d\	-ri-	.	.
.	.	.	.	2c\	In	2e-X\	-a	2a\	.
!LO:TX:t=P:problem=kreska pseudotaktowa	!	!	!	!	!	!	!	!	!
1BB-X	.	1BB-X	-tris	4B-X\	glo-	4f\	De-	1b-X	-men
.	.	.	.	4c\	-ri-	4e-X\	-i	.	.
*	*	*	*	*custos:d	*	*	*	*	*
.	.	.	.	2d\	-a	4d\	pa-	.	.
*	*	*	*	*	*	*custos:B	*	*	*
.	.	.	.	.	.	4c\	-tris	.	.
!	!	!	!	!LO:LB:g=original	!	!LO:LB:g=original	!	!	!
=123-	=123-	=123-	=123-	=123-	=123-	=123-	=123-	=123-	=123-
*	*	*lig	*	*	*	*	*	*	*
1BB-y	.	1BB-y	A-	4d\	De-	2B-X/	A-	2r	.
.	.	.	.	4c\	-i	.	.	.	.
.	.	.	.	4B-X\	pa-	1f	.	2dd\	A-
.	.	.	.	4A\	-tris	.	.	.	.
!LO:TX:t=P:problem=kreska pseudotaktowa	!	!	!	!	!	!	!	!	!
1C	.	1C	.	1G	A-	.	.	2g\	-men
.	.	.	.	.	.	2eny\	.	2.cc\	A-
*	*	*Xlig	*	*	*	*	*	*	*
=124-	=124-	=124-	=124-	=124-	=124-	=124-	=124-	=124-	=124-
!	!	!	!	!LO:TX:t=P:problem=kreska pseudotaktowa	!	!	!	!	!
1FF	.	1FF	-men	0F	-me(n)	2f\	men	.	.
.	.	.	.	.	.	.	.	4b-X\	.
.	.	.	.	.	.	2a\	A-	4a\	.
.	.	.	.	.	.	.	.	4g\	.
!LO:TX:t=P:problem=kreska pseudotaktowa	!	!	!	!	!	!	!	!	!
1F	.	2r	.	.	.	2d\	-men	1f	.
*	*	*	*	*	*	*	*ij	*	*
.	.	2F\	A-	.	.	2.f\	A-	.	.
=125-	=125-	=125-	=125-	=125-	=125-	=125-	=125-	=125-	=125-
2D\	.	2D\	-men	1r	.	.	.	1f	-men
.	.	.	.	.	.	4e\	.	.	.
2.B-X\	.	2.B-X\	A-	.	.	4d\	.	.	.
.	.	.	.	.	.	4c\	.	.	.
.	.	.	.	2r	.	4d\	.	1r	.
4A\	.	4A\	.	.	.	4e\	.	.	.
4G\	.	4G\	.	2d\	A-	1f\	.	.	.
!LO:TX:t=P:problem=kreska pseudotaktowa	!	!	!	!	!	!	!	!	!
4F\	.	4F\	.	.	.	.	.	.	.
=126-	=126-	=126-	=126-	=126-	=126-	=126-	=126-	=126-	=126-
*	*above	*	*	*	*	*	*	*	*
1G	5	1G	.	2G\	-men	.	.	2r	.
*	*	*	*	*	*	*	*	*	*ij
.	6	.	.	2.c\	A-	2e\	.	2cc\	A-
!LO:TX:t=P:problem=kreska pseudotaktowa	!	!	!	!	!	!	!	!	!
1F	.	0F	-men	.	.	1f	-men	2a\	-men
.	.	.	.	4Bny\	.	.	.	.	.
.	.	.	.	4A\	.	.	.	2.ff\	A-
.	.	.	.	4G\	.	.	.	.	.
*	*	*	*	*	*	*	*Xij	*	*
=127-	=127-	=127-	=127-	=127-	=127-	=127-	=127-	=127-	=127-
2A\	.	.	.	2A\	.	1r	.	.	.
.	.	.	.	.	.	.	.	4ee\	.
1Bny	.	.	.	1B	.	.	.	4dd\	.
.	.	.	.	.	.	.	.	4cc\	.
!	!	!LO:LB:g=original	!	!	!	!	!	!	!
.	.	1r	.	.	.	2r	.	4bny\	.
.	.	.	.	.	.	.	.	4g\	.
*custos:A	*	*	*	*	*	*	*	*	*
2G\	.	.	.	2G\	.	2g\	A-	1dd\	.
!LO:PB:g=original	!	!	!	!	!	!	!	!	!
=128-	=128-	=128-	=128-	=128-	=128-	=128-	=128-	=128-	=128-
1A	4	2r	.	1.A	.	2e\	-men	.	.
!LO:TX:b:t=P:problem=# below w bc	!	!	!	!	!	!	!	!LO:TX:b:t=P:problem=♯ below	!
.	#3	2A\	a-	.	.	2.a\	A-	2cc#X\	.
*	*	*	*	*	*	*	*	*custos:g	*
2D\	.	2D\	-men	.	.	.	.	1dd	-men
.	.	.	.	.	.	4g\	.	.	.
*	*	*	*ij	*	*	*	*	*	*
!LO:TX:t=P::problem=kreska pseudotaktowa&colon;między nutą a kropką	!	!	!	!	!	!	!	!	!
2.G\	.	2.G\	a-	2B\	.	4f\	.	.	.
.	.	.	.	.	.	4e\	.	.	.
!	!	!	!	!	!	!	!	!LO:PB:g=original	!
=129-	=129-	=129-	=129-	=129-	=129-	=129-	=129-	=129-	=129-
.	.	.	.	1B	-men	2d\	.	2r	.
4F\	.	4F\	.	.	.	.	.	.	.
4Eny\	.	4Eny\	.	.	.	2.g\	.	2g/	A-
4D\	.	4D\	.	.	.	.	.	.	.
!LO:TX:t=P:problem=kreska pseudotaktowa	!	!	!	!	!	!	!	!	!
1C	.	1C	.	2r	.	.	.	2e/	men
.	.	.	.	.	.	4f\	.	.	.
*	*	*	*	*	*ij	*	*	*	*
.	.	.	.	2c\	A-	2e\	.	2.a/	A-
!	!	!	!	!	!	!LO:LB:g=original	!	!	!
=130-	=130-	=130-	=130-	=130-	=130-	=130-	=130-	=130-	=130-
1D	.	1D	.	2A\	-men	1d	.	.	.
.	.	.	.	.	.	.	.	4g/	.
.	.	.	.	2.d\	A-	.	.	4f/	.
.	.	.	.	.	.	.	.	4e/	.
!LO:TX:t=P:problem=kreska pseudotaktowa	!	!	!	!	!	!	!	!	!
*	*	*lig	*	*	*	*	*	*	*
1BBny	6	1BBny	.	.	.	1d	-[men]	2d/	.
.	.	.	.	4c\	.	.	.	.	.
.	.	.	.	4B\	.	.	.	1f/	.
*	*	*	*	*custos:G	*	*	*	*	*
.	.	.	.	4A\	.	.	.	.	.
!	!	!	!	!LO:LB:g=original	!	!	!	!	!
=131-	=131-	=131-	=131-	=131-	=131-	=131-	=131-	=131-	=131-
1C	4	1C	.	2G/	.	2r	.	.	.
.	3	.	.	2.c\	.	2c\	A-	2e/	.
*	*	*Xlig	*	*	*	*	*	*	*
!LO:TX:t=P:problem=kreska pseudotaktowa	!	!	!	!	!	!	!	!	!
1FF	.	1FF	.	.	.	2A\	-men	1.f	.
.	.	.	.	4B\	.	.	.	.	.
*	*	*	*	*	*	*	*ij	*	*
.	.	.	.	4c\	.	2f\	A-	.	.
.	.	.	.	4A\	.	.	.	.	.
=132-	=132-	=132-	=132-	=132-	=132-	=132-	=132-	=132-	=132-
!LO:TX:t=P:problem=kreska pseudotaktowa	!	!	!	!	!	!	!	!	!
0GG	.	0GG	men	2B\	.	2d\	-men	.	.
.	.	.	.	1c	.	2.g\	A-	2e/	.
.	.	.	.	.	.	.	.	2d/	.
.	.	.	.	.	.	4f\	.	.	.
.	.	.	.	2B\	.	4e\	.	2g/	.
.	.	.	.	.	.	4d\	.	.	.
=133-	=133-	=133-	=133-	=133-	=133-	=133-	=133-	=133-	=133-
1C	.	2r	.	1c	-men	4e\	.	1e	-men
.	.	.	.	.	.	4f\	.	.	.
.	.	2C/	a-	.	.	4g\	.	.	.
.	.	.	.	.	.	4e\	.	.	.
*	*	*	*	*	*Xij	*	*	*	*
2AA/	.	2AA/	-men	1r	.	2f\	.	2r	.
!LO:TX:t=P::problem=kreska pseudotaktowa&colon;między nutą a kropką	!	!	!	!	!	!	!	!	!
2.C/	.	2.C/	a-	.	.	4e\	.	2ccny\	A-
.	.	.	.	.	.	4d\	.	.	.
=134-	=134-	=134-	=134-	=134-	=134-	=134-	=134-	=134-	=134-
.	.	.	.	2r	.	2e\	.	2g\	-men
4BB-X/	.	4BB-X/	.	.	.	.	.	.	.
4AA/	.	4AA/	.	2c\	A-	4f\	.	2.cc\	A-
4GG/	.	4GG/	.	.	.	4g\	.	.	.
!LO:TX:t=P:problem=kreska pseudotaktowa	!	!	!	!	!	!	!	!	!
1.FF	.	1.FF	.	2A\	men	1.a	.	.	.
.	.	.	.	.	.	.	.	4b-X\	.
*	*	*	*	*	*ij	*	*	*	*
.	.	.	.	2c\	A-	.	.	4a\	.
.	.	.	.	.	.	.	.	4g\	.
=135-	=135-	=135-	=135-	=135-	=135-	=135-	=135-	=135-	=135-
.	.	.	.	2c\	.	.	.	2a\	.
2C/	.	2C/	.	4c\	.	4e\	.	4g/	.
.	.	.	.	4B-X\	.	4d\	.	4f/	.
0FF	.	0FF	.	4A\	.	2c\	.	2e/	.
.	.	.	.	4G\	.	.	.	.	.
.	.	.	.	2F\	.	1f\	.	1a\	.
=136-	=136-	=136-	=136-	=136-	=136-	=136-	=136-	=136-	=136-
.	.	.	.	1c	.	.	.	.	.
.	.	.	.	.	.	4e\	.	4g/	.
.	.	.	.	.	.	4d\	.	4f/	.
1Cl;;	.	1Cl;;	-men	1cl;;	-men	1el;;	-men	1gl;;	-men
*	*	*	*Xij	*	*Xij	*	*Xij	*	*Xij
==	==	==	==	==	==	==	==	==	==
*-	*-	*-	*-	*-	*-	*-	*-	*-	*-
!!!system-decoration: [(s1,s2,s3,s4)]s5
!!!RDF**kern: > = above
!!!RDF**kern: < = below
!!!RDF**kern: l = terminal long
!!!ENC: Andrzej Kubiczek
!!!END: 2021-07-28
!!!ENC: Krzysztof Stępień
!!!END: 2021-07-06
!!!YEC: Copyright 2022 Narodowy Instytut Fryderyka Chopina (https://polishscores.org)
!!!YEM: License CC-BY-4.0 (https://creativecommons.org/licenses/by/4.0)
